!!!ONB: MCCC : IJH0453_04 : Extracted Monophonic Melody
!!!COM: Haydn, Joseph
!!!OPR: String Quartet in F major
!!!OMV: 4
!!!SCT: Hob.III:48 ; Op.50 No.5
!!!ODT: 1787///
**kern
*thru
*k[b-]
*F:
*clefG
*M6/8
16f
16a
=1
8cc
8cc
8cc
8.cc
16b
8cc
=2
8.cc
16b
8cc
8.cc
16b
8cc
=3
4cc
8ff
4ff
8aa
=4
4aa
8ccc
4ccc
16G
16A
=5
8B-
8B-
8B-
8.B-
16A
8B-
=6
8.B-
16A
8B-
8.B-
16A
8B-
=7
4B-
8e
4e
8g
=8
4g
8b-
4b-
8B-
=9
8A
8f
8f
8.f
16e
8f
=10
8d
8b-
8b-
8.b-
16a
8b-
=11
8c
8c
8c
8c
8d
8e
=12
4f
4.r
16f
16a
=13
8cc
8cc
8cc
8.cc
16b
8cc
=14
8.cc
16b
8cc
8.cc
16b
8cc
=15
4cc
8ff
4ff
8aa
=16
4aa
8ccc
4ccc
16G
16A
=17
8B-
8B-
8B-
8.B-
16A
8B-
=18
8.B-
16A
8B-
8.B-
16A
8B-
=19
4B-
8e
4e
8g
=20
4g
8b-
4b-
8B-
=21
8A
8f
8f
8.f
16e
8f
=22
8d
8b-
8b-
8.b-
16a
8b-
=23
8g
8dd
8dd
8.dd
16ee
8ff
=24
4.a
8g
8r
16cc
16ee
=25
8gg
8gg
8gg
8.gg
16ff#
8gg
=26
2.gg[
=27
8gg]
8gg
8gg
8.gg
16ff#
8gg
=28
2.gg[
=29
16gg]
16bb
16ccc
16bb
16ccc
16bb
16ccc
16ddd
16eee-
16ddd
16eee-
16ddd
=30
8eee-
8ccc
8aa-
8ee-
8cc
8a-
=31
4.g
4.f#
=32
16g
16a
16b
16a
16g
16a
16b
16cc
16dd
16cc
16b
16cc
=33
16dd
16ee
16ff
16ee
16dd
16ee
16ff
16ee
16dd
16ee
16ff
16gg
=34
2.aa
=35
4.aa
8gg
8gg
8gg
=36
4.ff
8ee
8ee
8ee
=37
16a
16b
16cc
16dd
16ee
16ff
16b
16cc
16dd
16ee
16ff
16gg
=38
16cc
16dd
16ee
16ff
16gg
16aa
16dd
16ee
16ff
16gg
16aa
16bb
=39
4ccc
8eee
4ggg
8eee
=40
8ccc
8gg
8ee
8cc
8a
8f#
=41
8g
8cc
8ee
4gg
8gg#
=42
8aa
8ff#
8gg
8ee
8ff
8dd#
=43
8ee
8b
8cc
8a
8dd
8ff
=44
4.cc
4.dd
=45
8cc
4r
4.ff
=46
8ee
4r
4.dd
=47
8cc
4r
16a
16b
16cc
16dd
16ee
16ff
=48
16gg
16aa
16bb
16ccc
16ddd
16eee
8fff
16fff
16eee
8fff
=49
8eee
4r
8bb
16bb
16aa
8bb
=50
8ccc
4r
8ff
16ff
16ee
8ff
=51
8ee
4r
8b
16b
16a
8b
=52
8cc
8r
16e
16g
8cc
8cc
8cc
=53
8cc
8r
16e
16g
8b-
8b-
8b-
=54
8b-
2r
16e
16g#
=55
8a
8a
8a
8a
8r
16cc#
16ee
=56
8gg
8r
16aa
16ccc#
8eee
8r
16d
16f
=57
16a
16dd
16a
16g
16f
16e
16d
16f
16e
16d
16c#
16A
=58
16d
16f
16e
16d
16c#
16A
16d
16f
16e
16d
16c#
16A
=59
16d
16f
16a
16cc#
16dd
16ff
16aa
16gg
16ff#
16ee-
16dd
16cc
=60
16b-
16dd
16b-
16g
16f#
16d
16g
16b-
16a
16g
16f#
16d
=61
16g
16b-
16a
16g
16f#
16d
16g
16b-
16a
16g
16f#
16d
=62
16g
16b-
16dd
16ff#
16gg
16bb-
16ddd
16ccc
16bb
16aa
16gg
16ff
=63
16ee
16gg
16ee
16cc
16b
16g
16cc
16ee
16dd
16cc
16b
16g
=64
16cc
16ee
16dd
16cc
16b
16g
16cc
16ee
16dd
16cc
16b
16g
=65
16cc
16dd
16ee
16ff
16gg
16aa
16bb-
16gg
16ee
16cc
16b-
16g
=66
8a
8aa
8aa
4.aa
=67
8gg
8ddd
8ddd
4.ddd
=68
8ccc#
8ccc#
8ccc#
8eee
8aa
8gg
=69
16ff
16gg
16aa
16gg
16ff
16ee
16dd
16ee
16ff
16ee
16dd
16cc
=70
16b
16cc
16dd
16ff
16dd
16cc
16b
16cc
16dd
16cc
16b
16a
=71
16g#
16b
16ee
16gg#
16bb
16gg#
16aa
16ee
16dd
16cc
16b
16a
=72
16g#
16b
16ee
16gg#
16bb
16gg#
16aa
16ee
16dd
16cc
16b
16a
=73
4e
8ee
8ff
8dd#
8ee
=74
8cc#
8dd
8b
8cc
8g#
8a
=75
4b-
8cc#
8ee
8gg
8bb-
=76
8gg#
8aa
8ee
8gg
8ff
8dd
=77
8cc
8b
8aa
8ff#
8gg
8b
=78
8dd
8cc
8ee
8dd
8ff
8ee
=79
8gg
8ff
8aa
8gg
8bb-
8aa
=80
8ccc
8bb-
8gg
8ee
8cc
8b-
=81
8g
8e
8c
8B-
8e
8g
=82
4b-
4.r
16f
16a
=83
8cc
8cc
8cc
8.cc
16b
8cc
=84
8.cc
16b
8cc
8.cc
16b
8cc
=85
4cc
8ff
4ff
8aa
=86
4aa
8ccc
4ccc
16G
16A
=87
8B-
8B-
8B-
8.B-
16A
8B-
=88
8.B-
16A
8B-
8.B-
16A
8B-
=89
4B-
8e
4e
8g
=90
4g
8b-
4b-
8B-
=91
8A
8f
8f
8.f
16e
8f
=92
8d
8b-
8b-
8e
8cc
8cc
=93
8f
8dd
8dd
8g
8cc
8b-
=94
16a
16aa
16gg
16ff
16ee
16dd
16cc
16b
16ff
16dd
16cc
16b
=95
8cc
8cc
8cc
8.cc
16b
8cc
=96
4.cc
8b-
8b-
8b-
=97
8.b-
16a
8b-
8a
8a
8a
=98
8.a
16g
8a
8g
8g
8g
=99
8a
8ccc
8ccc
8.ccc
16bb
8ccc
=100
2.ccc[
=101
8ccc]
8ccc
8ccc
8.ccc
16bb
8ccc
=102
2.ccc[
=103
16ccc]
16ddd
16eee-
16ddd
16eee-
16ddd
16eee-
16ddd
16eee-
16ddd
16eee-
16ddd
=104
8eee-
8ccc
8aa
8ff
8ee-
8cc
=105
4.cc#
8dd
8ddd
8ddd
=106
8r
16aa
16bb-
16aa
16bb-
8r
16ff#
16gg
16ff#
16gg
=107
8r
16cc#
16dd
16cc#
16dd
8r
8bb-
8gg
=108
4.ff
4.gg
=109
16ff
16gg
16aa
16gg
16ff
16ee
16dd
16ee
16ff
16ee
16dd
16cc
=110
16b
16cc
16dd
16cc
16b
16a
16g
16f
16e
16d
16c
16B
=111
16c
16d
16e
16d
16f
16e
16g
16f
16a
16g
16b-
16a
=112
8cc
8b-
8g
8cc
8b-
8g
=113
4cc
8b-
8g
8r
16f
16a
=114
8cc
8cc
8cc
8.cc
16b
8cc
=115
8.cc
16b
8cc
8.cc
16b
8cc
=116
4cc
8ff
4ff
8aa
=117
4aa
8ccc
4ccc
16G
16A
=118
8B-
8B-
8B-
8.B-
16A
8B-
=119
8.B-
16A
8B-
8.B-
16A
8B-
=120
4B-
8e
4e
8g
=121
4g
8b-
4b-
8B-
=122
8A
8f
8f
8.f
16e
8f
=123
8d
8b-
8b-
8.b-
16a
8b-
=124
8c
8c
8c
8c
8d
8e
=125
8f
4r
4.b-
=126
8a
4r
4.g
=127
8f
4r
16d
16e
16f
16g
16a
16b-
=128
16cc
16dd
16ee
16ff
16gg
16aa
8bb-
16bb-
16aa
8bb-
=129
8aa
4r
8ee
16ee
16dd
8ee
=130
8ff
4r
8b-
16b-
16a
8b-
=131
8a
4r
8e
16e
16d
8e
=132
4f
8r
4f
8r
=133
4f
2r
==
*-
